logo/gusto.svg

<?xml version="1.0" encoding="UTF-8"?>
<svg width="512px" height="195px" viewBox="0 0 512 195" version="1.1" xmlns="http://www.w3.org/2000/svg" preserveAspectRatio="xMidYMid">
    <title>Gusto</title>
    <g>
        <path d="M454.641159,28.4642319 C423.008464,28.4642319 397.267478,54.3165217 397.267478,86.0976232 C397.267478,117.878725 423.008464,143.731014 454.641159,143.731014 C486.266435,143.731014 512,117.878725 512,86.0976232 C512,54.3165217 486.266435,28.4642319 454.641159,28.4642319 L454.641159,28.4642319 Z M454.641159,116.416928 C438.00487,116.416928 424.45542,102.800696 424.45542,86.0976232 C424.45542,69.3871304 438.00487,55.7783188 454.641159,55.7783188 C471.262609,55.7783188 484.819478,69.3871304 484.819478,86.0976232 C484.819478,102.808116 471.270029,116.416928 454.633739,116.416928 L454.641159,116.416928 Z M285.696,74.4255072 L275.663768,69.3945507 C271.308058,67.2278261 268.577391,65.5508406 267.479188,64.3116522 C266.43232,63.2136119 265.836397,61.7622079 265.809623,60.2453333 C265.809623,58.3012174 266.685217,56.6613333 268.406725,55.3850435 C270.113391,54.0493913 272.539826,53.4409275 275.619246,53.4409275 C281.251246,53.4409275 287.49171,56.8394203 294.362899,63.6883478 L311.296,46.6736232 C307.135342,41.0077882 301.694252,36.4057449 295.41658,33.2428986 C289.221279,30.1258055 282.376347,28.5188229 275.441159,28.5527329 C265.104696,28.5527329 256.571362,31.6030145 249.922783,37.7470145 C243.281623,43.8910145 239.942493,51.2742029 239.942493,59.9336812 C239.942493,73.3644058 248.735536,84.5542029 266.380986,93.4362899 L275.619246,98.073971 C283.581217,102.103188 287.543652,106.206609 287.543652,110.451014 C287.543652,112.751304 286.438029,114.739942 284.241623,116.505971 C282.045217,118.27942 279.136464,119.117913 275.530203,119.117913 C272.191072,119.117913 268.362203,117.967768 264.051014,115.630377 C259.755269,113.330584 255.933397,110.238846 252.787014,106.518261 L235.942957,124.950261 C245.440928,137.416348 258.107362,143.693913 274.031304,143.693913 C286.000232,143.693913 295.550145,140.421565 302.629101,133.921391 C309.75258,127.428638 313.314319,119.296 313.314319,109.568 C313.314319,102.273855 311.340522,95.8701449 307.422609,90.4310725 C303.467594,84.992 296.210551,79.693913 285.696,74.4329275 L285.696,74.4255072 Z M115.355826,131.175884 L115.355826,30.7571014 L88.1233623,30.7571014 L88.1233623,37.4798841 C78.947401,31.5819841 68.266789,28.4519929 57.3588406,28.4641961 C25.7335652,28.4641961 0,54.3165217 0,86.0976232 C0,117.878725 25.7335652,143.731014 57.3662609,143.731014 C68.1433482,143.747162 78.7027083,140.697481 87.8117101,134.937971 C87.8117101,135.820986 87.7671884,136.614957 87.7671884,137.149217 C87.7671884,153.85229 74.2177391,167.468522 57.5888696,167.468522 C51.934725,167.455497 46.3993021,165.845286 41.6204058,162.82342 L28.1525797,186.516406 C37.0332821,191.933535 47.230901,194.808272 57.6333913,194.82713 C89.266087,194.82713 115.355826,168.96742 115.355826,137.186319 C115.355826,135.954551 115.437449,132.326029 115.355826,131.175884 Z M57.3662609,116.409507 C40.7448116,116.409507 27.187942,102.800696 27.187942,86.0976232 C27.187942,69.3871304 40.7373913,55.7783188 57.3662609,55.7783188 C73.9951304,55.7783188 87.5445797,69.3871304 87.5445797,86.0976232 C87.5445797,102.800696 73.9951304,116.416928 57.3662609,116.416928 L57.3662609,116.409507 Z M223.833043,30.72 L196.467014,30.72 L196.467014,85.5114203 C196.511536,93.2953043 196.511536,106.733449 190.797913,112.476754 C188.067246,115.214841 185.07687,117.693217 178.784464,117.693217 C172.447536,117.693217 169.457159,115.214841 166.733913,112.476754 C161.01287,106.726029 161.057391,93.2507826 161.094493,85.5114203 L161.094493,30.72 L133.735884,30.72 L133.735884,85.3481739 C133.646841,96.6121739 133.513275,117.522551 147.240812,131.398493 C155.291826,139.53113 164.886261,143.686493 178.739942,143.686493 C192.601043,143.686493 202.188058,139.575652 210.239072,131.398493 C223.966609,117.522551 223.833043,96.5676522 223.744,85.3481739 L223.833043,30.7125797 L223.833043,30.72 Z M378.909681,111.512116 C376.713275,113.189101 371.385507,116.906667 365.360232,116.068174 C360.433159,115.400348 356.433623,111.779246 355.817739,99.6693333 L355.817739,54.2348986 L387.977275,54.2348986 L387.977275,30.6309565 L355.817739,30.6309565 L355.817739,-1.42108547e-14 L328.540754,-1.42108547e-14 L328.540754,6.01043478 L328.496232,6.01043478 L328.496232,96.0927536 C328.496232,110.413913 332.102493,143.686493 365.31571,143.686493 C382.122667,143.426783 392.325565,134.277565 396.599652,130.700986 L397.171014,130.255768 L380.801855,110.013217 C380.757333,110.050319 379.614609,110.977855 378.909681,111.512116 L378.909681,111.512116 Z" fill="#F45D48"></path>
    </g>
</svg>

<svg viewBox="0 0 512 195" xmlns="http://www.w3.org/2000/svg"><path fill="#F45D48" d="M454.64 28.46c-31.64 0-57.38 25.85-57.38 57.63s25.74 57.63 57.37 57.63c31.62 0 57.35-25.86 57.35-57.64 0-31.79-25.74-57.64-57.36-57.64v-.001Zm0 87.95c-16.64 0-30.19-13.62-30.19-30.32 0-16.72 13.54-30.32 30.18-30.32 16.62 0 30.17 13.6 30.17 30.31s-13.55 30.31-30.19 30.31h0Zm-168.95-42l-10.04-5.04c-4.36-2.17-7.09-3.85-8.19-5.09 -1.05-1.1-1.65-2.55-1.67-4.07 0-1.95.87-3.59 2.59-4.87 1.7-1.34 4.13-1.95 7.21-1.95 5.63 0 11.87 3.39 18.74 10.24l16.93-17.02c-4.17-5.67-9.61-10.27-15.88-13.44 -6.2-3.12-13.05-4.73-19.98-4.7 -10.34 0-18.87 3.05-25.52 9.19 -6.65 6.14-9.99 13.52-9.99 22.18 0 13.43 8.79 24.62 26.43 33.5l9.23 4.63c7.96 4.02 11.92 8.13 11.92 12.37 0 2.3-1.11 4.28-3.31 6.05 -2.2 1.77-5.11 2.61-8.72 2.61 -3.34 0-7.17-1.16-11.48-3.49 -4.3-2.3-8.12-5.4-11.27-9.12l-16.85 18.43c9.49 12.46 22.16 18.74 38.08 18.74 11.96 0 21.51-3.28 28.59-9.78 7.12-6.5 10.68-14.63 10.68-24.36 0-7.3-1.98-13.7-5.9-19.14 -3.96-5.44-11.22-10.74-21.73-16v-.01Zm-170.35 56.75V30.74H88.1v6.72c-9.18-5.9-19.86-9.03-30.77-9.02C25.7 28.44-.03 54.29-.03 86.07c0 31.78 25.73 57.63 57.36 57.63 10.77.01 21.33-3.04 30.44-8.8 0 .88-.05 1.67-.05 2.21 0 16.7-13.55 30.31-30.18 30.31 -5.66-.02-11.19-1.63-15.97-4.65L28.1 186.46c8.88 5.41 19.07 8.29 29.48 8.31 31.63 0 57.72-25.86 57.72-57.65 0-1.24.08-4.87 0-6.02Zm-57.99-14.77c-16.63 0-30.18-13.61-30.18-30.32 0-16.72 13.54-30.32 30.17-30.32 16.62 0 30.17 13.6 30.17 30.31 0 16.7-13.55 30.31-30.18 30.31v-.01ZM223.81 30.7h-27.37v54.79c.04 7.78.04 21.22-5.67 26.96 -2.74 2.73-5.73 5.21-12.02 5.21 -6.34 0-9.33-2.48-12.06-5.22 -5.73-5.76-5.68-19.23-5.64-26.97v-54.8h-27.36v54.62c-.09 11.26-.23 32.17 13.5 46.05 8.05 8.13 17.64 12.28 31.49 12.28 13.86 0 23.44-4.12 31.49-12.29 13.72-13.88 13.59-34.84 13.5-46.06l.08-54.64v0Zm155.07 80.79c-2.2 1.67-7.53 5.39-13.55 4.55 -4.93-.67-8.93-4.29-9.55-16.4V54.2h32.15V30.59h-32.16V-.05h-27.28v6.01h-.05v90.08c0 14.32 3.6 47.59 36.81 47.59 16.8-.26 27-9.41 31.28-12.99l.57-.45 -16.37-20.25c-.05.03-1.19.96-1.9 1.49v0Z"/></svg>
